src/icons/solid/film-canister.svg

<svg xmlns="http://www.w3.org/2000/svg" viewBox="0 0 576 512"><!--! Font Awesome Pro 6.7.2 by @fontawesome - https://fontawesome.com License - https://fontawesome.com/license (Commercial License) Copyright 2024 Fonticons, Inc. --><path d="M128 0C110.3 0 96 14.3 96 32L32 32C14.3 32 0 46.3 0 64S14.3 96 32 96l0 352c-17.7 0-32 14.3-32 32s14.3 32 32 32l288 0c17.7 0 32-14.3 32-32s-14.3-32-32-32l0-352c17.7 0 32-14.3 32-32s-14.3-32-32-32l-64 0c0-17.7-14.3-32-32-32L128 0zM352 128l0 288 128 0c17.7 0 32-14.3 32-32l0-32c0-17.7 14.3-32 32-32s32-14.3 32-32l0-128c0-17.7-14.3-32-32-32l-192 0zm56 40l16 0c8.8 0 16 7.2 16 16l0 16c0 8.8-7.2 16-16 16l-16 0c-8.8 0-16-7.2-16-16l0-16c0-8.8 7.2-16 16-16zm80 16c0-8.8 7.2-16 16-16l16 0c8.8 0 16 7.2 16 16l0 16c0 8.8-7.2 16-16 16l-16 0c-8.8 0-16-7.2-16-16l0-16zM408 328l16 0c8.8 0 16 7.2 16 16l0 16c0 8.8-7.2 16-16 16l-16 0c-8.8 0-16-7.2-16-16l0-16c0-8.8 7.2-16 16-16z"/></svg>

<svg xmlns="http://www.w3.org/2000/svg" viewBox="0 0 576 512"><!--! Font Awesome Pro 6.5.2 by @fontawesome - https://fontawesome.com License - https://fontawesome.com/license (Commercial License) Copyright 2024 Fonticons, Inc. --><path d="M128 0C110.3 0 96 14.3 96 32H32C14.3 32 0 46.3 0 64S14.3 96 32 96V448c-17.7 0-32 14.3-32 32s14.3 32 32 32H320c17.7 0 32-14.3 32-32s-14.3-32-32-32V96c17.7 0 32-14.3 32-32s-14.3-32-32-32H256c0-17.7-14.3-32-32-32H128zM352 128V416H480c17.7 0 32-14.3 32-32V352c0-17.7 14.3-32 32-32s32-14.3 32-32V160c0-17.7-14.3-32-32-32H352zm56 40h16c8.8 0 16 7.2 16 16v16c0 8.8-7.2 16-16 16H408c-8.8 0-16-7.2-16-16V184c0-8.8 7.2-16 16-16zm80 16c0-8.8 7.2-16 16-16h16c8.8 0 16 7.2 16 16v16c0 8.8-7.2 16-16 16H504c-8.8 0-16-7.2-16-16V184zM408 328h16c8.8 0 16 7.2 16 16v16c0 8.8-7.2 16-16 16H408c-8.8 0-16-7.2-16-16V344c0-8.8 7.2-16 16-16z"/></svg>
